src/assets/icons/richtext-list-ordered.svg

<svg width="16" height="16" viewBox="0 0 16 16" fill="none" xmlns="http://www.w3.org/2000/svg">
<g clip-path="url(#clip0_8874_15349)">
<path d="M2.83342 3.41852H3.00407L2.99724 3.40624C3.27711 3.40624 3.5092 3.6315 3.5092 3.9182C3.5092 4.19807 3.27711 4.43016 2.99724 4.43016H1.29071C1.00401 4.43016 0.778751 4.19807 0.778751 3.9182C0.778751 3.6315 1.00401 3.40624 1.29071 3.40624H1.46136C1.5501 3.40624 1.63202 3.32432 1.63202 3.23558V1.18775H1.63884C1.63884 1.09901 1.55693 1.01709 1.46819 1.02392H1.29754C1.01084 1.02392 0.785577 0.791831 0.785577 0.511959C0.785577 0.225262 1.01084 0 1.29754 0H1.72417C2.23954 0 2.65594 0.42322 2.66276 0.942005V3.24787C2.66276 3.33661 2.73785 3.41852 2.83342 3.41852Z" fill="currentColor"/>
<path d="M3.17472 7.16745C3.17472 6.40975 2.56036 5.80222 1.80949 5.80222C1.05179 5.80222 0.444265 6.40975 0.444265 7.16745C0.444265 7.44732 0.669528 7.67941 0.956225 7.67941C1.2361 7.67941 1.46818 7.44732 1.46818 7.16745C1.46818 6.97632 1.61836 6.82614 1.80949 6.82614C1.9938 6.82614 2.1508 6.97632 2.1508 7.16745C2.14397 7.32445 2.08936 7.48145 1.9938 7.60432L0.553483 9.39959C0.376004 9.61803 0.410135 9.93886 0.628571 10.1163C0.71731 10.1846 0.826529 10.2256 0.942573 10.2256H2.6491C2.92898 10.2256 3.16106 9.99347 3.16106 9.71359C3.16106 9.4269 2.92898 9.20163 2.6491 9.20163H2.36241C2.26684 9.20163 2.19175 9.12655 2.18493 9.03098C2.1781 8.99002 2.19175 8.94907 2.21906 8.92176L2.77197 8.2255C3.01089 7.9115 3.14741 7.53606 3.14741 7.14014L3.17472 7.16745Z" fill="currentColor"/>
<path d="M1.78218 11.6044C1.16101 11.5976 0.621742 12.014 0.457915 12.6147C0.382828 12.8877 0.545972 13.1676 0.819017 13.2359C1.09206 13.3041 1.37193 13.1403 1.44019 12.8727C1.48798 12.6884 1.67228 12.5792 1.85659 12.627C2.03407 12.6748 2.14329 12.8591 2.0955 13.0434C2.05455 13.1867 1.91802 13.2891 1.76102 13.2891C1.47433 13.2891 1.24906 13.5144 1.24906 13.8011C1.24906 14.0809 1.47433 14.313 1.76102 14.313C1.94533 14.313 2.0955 14.4632 2.0955 14.6543C2.08868 14.8386 1.9385 14.9888 1.74737 14.9888C1.59037 14.982 1.45385 14.8864 1.41289 14.7362H1.40675C1.33849 14.4564 1.05861 14.2926 0.785569 14.3608C0.505698 14.4222 0.341871 14.7021 0.410133 14.9752C0.410133 14.982 0.410133 14.9888 0.416959 15.0025C0.614916 15.726 1.36579 16.1493 2.09619 15.9513C2.81976 15.7465 3.24297 14.9956 3.04502 14.2652C3.00406 14.1219 2.94263 13.9854 2.86071 13.8693C2.81976 13.8079 2.81976 13.7328 2.86071 13.6782C3.27711 13.0502 3.10645 12.1969 2.47845 11.7805C2.25319 11.6304 1.98697 11.5485 1.72075 11.5485L1.78218 11.6044Z" fill="currentColor"/>
<path fill-rule="evenodd" clip-rule="evenodd" d="M6.2042 1.42723C5.88411 1.47877 5.59589 1.78058 5.54731 2.11505C5.50827 2.38396 5.58585 2.61297 5.78236 2.80891C5.93218 2.95831 6.058 3.02173 6.25319 3.0462C6.43615 3.06914 14.6868 3.0703 14.8871 3.04741C15.2416 3.0069 15.5345 2.72385 15.5947 2.36343C15.6651 1.94245 15.3769 1.52194 14.9571 1.43296C14.8622 1.41288 14.2263 1.4097 10.5702 1.41109C8.17607 1.41201 6.25466 1.4191 6.2042 1.42723ZM6.14039 7.23437C5.8898 7.30175 5.68105 7.49703 5.58146 7.75726C5.55084 7.83724 5.54382 7.88762 5.54382 8.02758C5.54382 8.16753 5.55084 8.21791 5.58146 8.29789C5.68247 8.56185 5.89101 8.75481 6.14743 8.8216C6.23289 8.84387 6.73613 8.84672 10.5702 8.84672C15.3102 8.84672 14.9826 8.85345 15.1726 8.75219C15.296 8.68643 15.4616 8.51438 15.5231 8.388C15.6305 8.16744 15.6305 7.88771 15.5231 7.66715C15.4616 7.54077 15.296 7.36872 15.1726 7.30296C14.9825 7.20165 15.3116 7.20833 10.5627 7.20951C6.82944 7.21045 6.21652 7.21389 6.14039 7.23437ZM6.23423 13.0086C6.06965 13.0278 5.92522 13.1038 5.78236 13.2462C5.58573 13.4423 5.50716 13.6756 5.54748 13.9435C5.59876 14.2842 5.88632 14.5773 6.22058 14.6294C6.36757 14.6523 14.7729 14.6523 14.9199 14.6294C15.3535 14.5618 15.6673 14.1258 15.5947 13.6917C15.5345 13.3313 15.2416 13.0483 14.8871 13.0077C14.7198 12.9886 6.3984 12.9895 6.23423 13.0086Z" fill="currentColor"/>
</g>
<defs>
<clipPath id="clip0_8874_15349">
<rect width="16" height="16" fill="white"/>
</clipPath>
</defs>
</svg>

<svg xmlns="http://www.w3.org/2000/svg" width="16" height="16" fill="none">
  <g fill="currentColor" clip-path="url(#a)">
    <path d="M2.833 3.419h.171l-.007-.013a.511.511 0 1 1 0 1.024H1.291a.511.511 0 0 1-.512-.512c0-.287.225-.512.512-.512h.17c.09 0 .171-.082.171-.17V1.188h.007c0-.089-.082-.17-.17-.164h-.171A.511.511 0 0 1 .786.512C.786.225 1.01 0 1.298 0h.426c.516 0 .932.423.939.942v2.306c0 .089.075.17.17.17Zm.342 3.748a1.365 1.365 0 1 0-2.73 0 .511.511 0 1 0 1.023 0 .342.342 0 0 1 .683 0 .774.774 0 0 1-.157.437L.554 9.4a.51.51 0 0 0 .075.716.51.51 0 0 0 .314.11h1.706a.511.511 0 1 0 0-1.024h-.287a.18.18 0 0 1-.177-.171.126.126 0 0 1 .034-.11l.553-.695c.239-.315.375-.69.375-1.086l.028.027Zm-1.393 4.437a1.359 1.359 0 0 0-1.324 1.01.502.502 0 0 0 .361.622.513.513 0 0 0 .621-.363.34.34 0 0 1 .417-.246.341.341 0 0 1 .238.416.346.346 0 0 1-.334.246.507.507 0 0 0-.512.512c0 .28.225.512.512.512.184 0 .335.15.335.341a.347.347 0 0 1-.349.335.352.352 0 0 1-.334-.253h-.006a.51.51 0 0 0-.621-.375.5.5 0 0 0-.369.641 1.365 1.365 0 0 0 1.68.95 1.375 1.375 0 0 0 .948-1.687 1.317 1.317 0 0 0-.184-.396.164.164 0 0 1 0-.19 1.372 1.372 0 0 0-1.14-2.13l.061.055Z"/>
    <path fill-rule="evenodd" d="M6.204 1.427c-.32.052-.608.354-.657.688a.772.772 0 0 0 .235.694c.15.15.276.213.471.237.183.023 8.434.024 8.634.001a.824.824 0 0 0 .708-.684.827.827 0 0 0-.638-.93c-.095-.02-.73-.023-4.387-.022-2.394.001-4.315.008-4.366.016ZM6.14 7.234a.846.846 0 0 0-.559.523.636.636 0 0 0-.037.27c0 .14.007.19.037.27a.84.84 0 0 0 .566.525c.086.022.59.025 4.423.025 4.74 0 4.413.006 4.603-.095a1 1 0 0 0 .35-.364.847.847 0 0 0 0-.72 1 1 0 0 0-.35-.365c-.19-.101.139-.095-4.61-.093-3.734 0-4.346.004-4.423.024Zm.094 5.775a.75.75 0 0 0-.452.237.776.776 0 0 0-.235.697.84.84 0 0 0 .674.686c.147.023 8.552.023 8.699 0a.829.829 0 0 0 .675-.937.825.825 0 0 0-.708-.684c-.167-.02-8.489-.018-8.653 0Z" clip-rule="evenodd"/>
  </g>
  <defs>
    <clipPath id="a">
      <path fill="#fff" d="M0 0h16v16H0z"/>
    </clipPath>
  </defs>
</svg>
